src/icons/svgs/24/tags.svg

<svg width="24" height="24" viewBox="0 0 24 24" fill="none" xmlns="http://www.w3.org/2000/svg">
<path d="M17.6756 9.82656L11.8598 3.82344C11.3965 3.34569 10.5878 3 9.93339 3H3.80174C2.80841 3 2 3.83444 2 4.85975V11.1892C2 11.8628 2.33491 12.6976 2.79665 13.1746L8.6125 19.1815C9.14299 19.7268 9.84148 20 10.5363 20C11.2311 20 11.93 19.7266 12.4601 19.1792L17.673 13.7984C18.7344 12.7029 18.7344 10.9232 17.6756 9.82656ZM16.4257 12.5094L11.2127 17.8902C10.8403 18.2757 10.2326 18.275 9.86023 17.8908L4.04474 11.8871C3.91375 11.7519 3.76498 11.3805 3.76498 11.1896V4.85975L3.80174 4.82181H9.93375C10.1187 4.82181 10.4782 4.97538 10.6095 5.11058L16.4253 11.1137C16.8007 11.4658 16.8007 12.1261 16.4257 12.5094ZM6.99972 7.25C6.99972 7.75317 6.60453 8.16071 6.11742 8.16071C5.63031 8.16071 5.23512 7.75469 5.23512 7.25C5.23512 6.74531 5.63031 6.33929 6.11742 6.33929C6.60453 6.33929 6.99972 6.74531 6.99972 7.25ZM20.5468 8.26317L15.5581 3.25804C15.2106 2.90821 14.6511 2.91652 14.3103 3.27701C13.9709 3.6375 13.9789 4.21391 14.3287 4.56491L19.3101 9.56246C19.9086 10.1791 20.2376 10.9999 20.2376 11.8726C20.2376 12.7454 19.9079 13.5662 19.3075 14.1855L15.2011 18.4506C14.8576 18.8076 14.8588 19.3837 15.2046 19.7385C15.3743 19.9127 15.5985 20 15.8228 20C16.0497 20 16.276 19.9105 16.4485 19.7314L20.5549 15.47C21.4864 14.5085 22 13.2301 22 11.8704C22 10.5108 21.4879 9.2308 20.5468 8.26317Z" fill="black"/>
</svg>

<svg width="24" height="24" viewBox="0 0 24 24" xmlns="http://www.w3.org/2000/svg">
    <path d="M17.676 9.827 11.86 3.823C11.397 3.346 10.588 3 9.933 3H3.802C2.808 3 2 3.834 2 4.86v6.33c0 .673.335 1.508.797 1.985l5.816 6.006c.53.546 1.228.819 1.923.819.695 0 1.394-.273 1.924-.82l5.213-5.382a2.878 2.878 0 0 0 .003-3.971zm-1.25 2.682-5.213 5.381a.936.936 0 0 1-1.353 0l-5.815-6.003c-.131-.135-.28-.507-.28-.697V4.86l.037-.038h6.132c.185 0 .544.153.676.289l5.815 6.003c.376.352.376 1.012 0 1.395zM7 7.25c0 .503-.395.91-.883.91a.896.896 0 0 1-.882-.91c0-.505.395-.91.882-.91.488 0 .883.405.883.91zm13.547 1.013-4.989-5.005a.864.864 0 0 0-1.248.019.932.932 0 0 0 .019 1.288l4.981 4.997c.599.617.928 1.438.928 2.31 0 .873-.33 1.694-.93 2.313L15.2 18.451a.931.931 0 0 0 .004 1.287.86.86 0 0 0 1.243-.007l4.107-4.261A5.142 5.142 0 0 0 22 11.87c0-1.36-.512-2.64-1.453-3.607z"/>
</svg>
